X: 13286
T: Fjellvåk
R: waltz
M: 3/4
K: Cmajor
E3G Bc|B4 G2|E2G2 Bc|B4 c2|d3c AG|F4 D2|E3 F EC|D6|
E3G Bc|B4 G2|E2G2 Bc|B4 Bc|A3 G F2|ED C2 B,2|1 C6-|C6:|2 C6-|C4 G,2||
A,4 B,2|C4 D2|E3 F EC|D4 DE|F4 F2|E3 D C2|D6|G4 G,2|
A,4 B,2|C4 D2|E3 F EC|D4 DE|FA EG DF|ED CB, A,B,|1 C6-|C4G,2:|2 C6-|C6||

